!!!OTL: In Festo Corporis Christi
**kern
*staff1
=--
*clefC1
*k[b-]
1.dd
2dd
=-
1dd
1dd
=-
2ee-
2dd
1dd
=-
1dd
1.dd
2dd
1cc
=-
1cc
2dd
2dd
=-
1dd
1dd
=-
1.dd
2cc
=-
1b-
1ee-
=-
1.dd
2dd
=-
0dd
!!linebreak:original
=-
1.dd
2dd
=-
!LO:TX:Y=-41:t=P
1dd
1cc
=-
2ee-
2dd
1dd
=-
!LO:TX:Y=-42:t=P
1dd
2dd
2dd
=-
1dd
1dd
=-
!LO:TX:Y=-42:t=P
2cc
2dd
1dd
=-
1dd
1.dd
2cc
1b-
=-
!!linebreak:original
1a
2b-
2ee-
=-
!LO:TX:Y=-40:t=P
1dd
1b-
=-
1dd
1dd
=-
2dd
2dd
1.dd
2dd
1dd
=-
2r
2dd
1ee-
=-
2ee
2dd
1.cc
2cc
=-
0dd
!!linebreak:original
=-
*k[]
1cc
1dd
=-
!LO:TX:Y=-40:t=P
2ee
2dd
2ee
2cc
=-
!LO:TX:Y=-41:t=P
2b
2dd
2cc
2b
=-
!LO:TX:Y=-42:t=P
2cc
2a
0g
=-
2ee
2cc
2b
2g
=-
!LO:TX:Y=-40:t=P
1e
1f
=-
!LO:TX:Y=-40:t=P
2ee
2dd
2cc
2b
=-
0cc
!!linebreak:original
=-
1cc
1dd
=-
2ee
2dd
2ee
2cc
=-
2b
2dd
2cc
2b
=-
!LO:TX:Y=-37:t=P
2cc
2a
0g
=-
2ee
2cc
2b
2g
=-
!LO:TX:Y=-37:t=P
1e
1f
=-
2ee
2dd
2cc
2b
=-
0cc
=-
!!pagebreak:original
2e
4f
4f
2e
2c
=-
1e
1f
=-
2g
2a
1b
=-
2b
2cc
2b
2g
=-
1e
1f
=-
2ee
2dd
2cc
2b
=-
1cc
1cc
=-
1dd
2ee
2dd
=-
2ee
2cc
2b
2dd
=-
2cc
2b
2cc
2a
=-
0g
=-=
*-
!!title: @{OTL}, @{GTL}, ed. @{ENC}
!!!pag:
!!!GTL: Hymnbook C
!!!EFL: 
!!!YEM: Creative Commons CC/BY/NC/SA 4.0
!!!ENC: Marcin Konik
!!!END: 2015-0m-dd
!!!EED: Marcin Konik
!!!EEV: 
!!!ONB: Encoded in vim by Marcin Konik
!!!CharacterEncoding: utf-8
!!!RDF**kern: l=long note in original notation
!!!RDF**kern: i=editorial accidental
!!muse2ps: z14jc180F
!!!COM: Anonim
!!!CDT: [?]
!!!TXO: Polish
!!!ODT: 
!!!GTL: Hymnbook C
!!!ARL: Opactwo św. Wojciecha, Staniątki 
!!!voices:	1
